!!!OTL: Der junge Held Ich ging einmal spazieren
!!!ARE: Europa, Mitteleuropa, Deutschland / France, Lothringen
!!!YOR: 3, S. 152
!!    1933 gedruckt in Heidelberg
!!!SCT: Q0060H
!!!YEM: Copyright 1995, estate of Helmut Schaffrath.
**kern
*ICvox
*Ivox
*M4/4
*k[b-e-]
*g:
{4fn
=1
4cc
4cc
4g
4b-
=2
4a
4g
4fn}
{4fn
=3
4b-
4a
4g
4fn
=4
4g
8e
8d
4c}
{8c
8c
=5
8fn
8fn
4fn
4g
4g
=6
2cc}
{2dd
=7
4cc
8g
8a
4b-
4a
=8
2g
4r}
==
!!!AGN: Ballade, Verfuehrung, Standesunterschied
!! Kleinere Melodievarianten aus anderer Quelle abgedruckt.
!!!ONB: ESAC (Essen Associative Code) Database: BALLADE
!!!AMT: simple quadruple
!!!AIN: vox
!!!EED: Helmut Schaffrath
!!!EEV: 1.0
*-
